assets/img/components/unav-footer-header.svg

<svg width="578" height="145" viewBox="0 0 578 145" fill="none" xmlns="http://www.w3.org/2000/svg">
<path d="M433 145V-0.000152588L505.335 -0.000152588C545.467 -0.000152588 578 32.4592 578 72.4999C578 112.541 545.467 145 505.335 145L433 145Z" fill="#286AD8"/>
<path d="M434 145C434 64.9792 369.094 0.109528 289.028 0.109528L289 0V145L434 145Z" fill="#286AD8"/>
<path d="M183.424 145C161.651 145 144 127.148 144 105.125V0H289V145H183.424Z" fill="#286AD8"/>
<path d="M72.5 145C112.541 145 145 112.541 145 72.5C145 32.4594 112.541 0 72.5 0C32.4593 0 0 32.4594 0 72.5C0 112.541 32.4593 145 72.5 145Z" fill="#286AD8"/>
<path d="M298.873 119H263.443C261.472 119 260.158 120.2 260.158 122C260.158 123.8 261.472 125 263.443 125H298.873C300.844 125 302.158 123.8 302.158 122C302.158 120.2 300.844 119 298.873 119Z" fill="#5187DF"/>
<path d="M370.874 119H335.443C333.473 119 332.158 120.2 332.158 122C332.158 123.8 333.473 125 335.443 125H370.874C372.844 125 374.158 123.8 374.158 122C374.158 120.2 372.844 119 370.874 119Z" fill="#5187DF"/>
<path d="M226.874 119H191.443C189.472 119 188.158 120.2 188.158 122C188.158 123.8 189.472 125 191.443 125H226.874C228.844 125 230.158 123.8 230.158 122C230.158 120.2 228.844 119 226.874 119Z" fill="#5187DF"/>
<path d="M264.242 90.017C268.668 90.0321 281.98 90.0386 288.127 90.0336C288.931 90.1046 289.459 90.6764 289.844 91.4276C290.233 92.1121 290.279 93.011 290.603 93.6942C291.016 94.4146 292.077 94.7136 292.735 95.1603C293.592 95.6758 294.392 96.2509 295.328 96.6825C295.843 96.9197 296.503 97.1758 296.817 97.6845C296.963 97.9208 297.008 98.1588 296.994 98.3973C296.974 98.7273 296.54 98.9798 296.31 99.1535C295.949 99.4266 295.644 99.7255 295.441 100.14C295.339 100.345 295.27 100.602 295.391 100.796C295.679 101.257 296.832 100.811 297.223 100.68C297.765 100.498 298.315 100.25 298.88 100.149C301.285 99.7176 303.744 99.3537 305.903 98.1992C306.209 98.0356 306.902 97.7736 306.987 97.4351C307.199 96.5928 304.72 97.3978 304.421 97.4957C303.886 97.6854 303.31 97.6736 302.752 97.755C301.517 97.9694 299.795 98.3249 298.575 98.3659C297.96 98.4303 297.665 97.9556 297.808 97.3434C297.976 96.5758 298.682 96.1055 298.632 95.299C298.537 93.6627 299.05 91.8435 299.021 90.1904C298.934 88.126 299.79 86.1616 299.852 84.1212C299.906 82.3667 300.154 80.6125 299.943 78.8724C299.756 77.3275 299.17 75.4933 299.292 73.9374C299.321 73.5597 299.381 73.3269 299.484 72.9663C299.912 71.7708 299.507 70.5121 299.512 69.3321C299.516 67.8539 299.776 67.2365 298.839 67.0619C297.902 66.8872 295.275 67.1448 294.262 67.0776C292.844 67.1161 291.398 67.0459 290.107 67.6584C288.503 68.4298 287.251 69.8264 286.196 71.2141C285.623 72.1404 284.458 72.4281 283.869 73.3318C283.273 74.1643 283.761 75.0911 283.795 76.0048C283.832 78.8223 282.863 78.4033 281.072 79.8602C280.298 80.4892 279.259 80.6097 278.3 80.6319C277.539 80.6495 276.484 80.7747 275.747 80.5812C275.015 80.3889 274.359 79.8467 273.571 79.8467C272.45 79.7167 270.744 79.771 269.54 80.012C268.688 80.1994 268.002 80.3585 267.975 81.3268C267.965 82.1814 269.038 83.0535 268.863 83.9298C268.479 85.4781 266.536 86.4312 265.295 87.1982C264.974 87.3705 264.457 87.6217 264.241 87.9304C263.881 88.4446 263.961 90.0142 264.242 90.017Z" fill="#5187DF"/>
</svg>

<svg xmlns="http://www.w3.org/2000/svg" width="578" height="145" fill="none" viewBox="0 0 578 145"><path fill="#286ad8" d="M433 145V0h72.335C545.467 0 578 32.46 578 72.5S545.467 145 505.335 145z"/><path fill="#286ad8" d="M434 145C434 64.98 369.094.11 289.028.11L289 0v145zM183.424 145C161.651 145 144 127.148 144 105.125V0h145v145z"/><path fill="#286ad8" d="M72.5 145c40.041 0 72.5-32.459 72.5-72.5S112.541 0 72.5 0 0 32.46 0 72.5 32.46 145 72.5 145"/><path fill="#5187df" d="M298.873 119h-35.43c-1.971 0-3.285 1.2-3.285 3s1.314 3 3.285 3h35.43c1.971 0 3.285-1.2 3.285-3s-1.314-3-3.285-3M370.874 119h-35.431c-1.97 0-3.285 1.2-3.285 3s1.315 3 3.285 3h35.431c1.97 0 3.284-1.2 3.284-3s-1.314-3-3.284-3M226.874 119h-35.431c-1.971 0-3.285 1.2-3.285 3s1.314 3 3.285 3h35.431c1.97 0 3.284-1.2 3.284-3s-1.314-3-3.284-3M264.242 90.017c4.426.015 17.738.022 23.885.017.804.07 1.332.642 1.717 1.394.389.684.435 1.583.759 2.266.413.72 1.474 1.02 2.132 1.466.857.516 1.657 1.09 2.593 1.523.515.237 1.175.493 1.489 1.001.146.237.191.475.177.713-.02.33-.454.583-.684.756-.361.274-.666.572-.869.987-.102.205-.171.462-.05.656.288.461 1.441.015 1.832-.116.542-.182 1.092-.43 1.657-.531 2.405-.431 4.864-.795 7.023-1.95.306-.163.999-.425 1.084-.764.212-.842-2.267-.037-2.566.06-.535.19-1.111.179-1.669.26-1.235.214-2.957.57-4.177.61-.615.065-.91-.41-.767-1.022.168-.767.874-1.237.824-2.044-.095-1.636.418-3.456.389-5.109-.087-2.064.769-4.028.831-6.069.054-1.754.302-3.508.091-5.249-.187-1.544-.773-3.379-.651-4.935.029-.377.089-.61.192-.97.428-1.196.023-2.455.028-3.635.004-1.478.264-2.095-.673-2.27s-3.564.083-4.577.016c-1.418.038-2.864-.032-4.155.58-1.604.772-2.856 2.168-3.911 3.556-.573.926-1.738 1.214-2.327 2.118-.596.832-.108 1.76-.074 2.673.037 2.817-.932 2.398-2.723 3.855-.774.63-1.813.75-2.772.772-.761.017-1.816.143-2.553-.05-.732-.193-1.388-.735-2.176-.735-1.121-.13-2.827-.076-4.031.165-.852.187-1.538.347-1.565 1.315-.01.854 1.063 1.727.888 2.603-.384 1.548-2.327 2.501-3.568 3.268-.321.173-.838.424-1.054.732-.36.515-.28 2.084.001 2.087"/></svg>
